Simply-Black-Circles/scalable/apps/filezilla.svg

<svg xmlns="http://www.w3.org/2000/svg" width="48" height="48" viewBox="0 0 12.7 12.7"><path fill="#1a1a1a" d="M6.35.061A6.29 6.29 0 0 0 .061 6.35a6.29 6.29 0 0 0 6.289 6.289 6.29 6.29 0 0 0 6.289-6.289A6.29 6.29 0 0 0 6.35.061zm-.018.936a5.407 5.407 0 0 1 5.407 5.407 5.407 5.407 0 0 1-5.407 5.407A5.407 5.407 0 0 1 .925 6.404 5.407 5.407 0 0 1 6.332.997zm2.796 1.649H4.035l-1.39 6.482h1.39l.602-2.778h3.41L4.962 9.128l.926.926c1.389-.926 2.778.741 4.167-.648l-.278-1.111-.416.324c-.63.362-1.147-.045-1.88-.158L9.59 6.35l.463-1.388H4.961l.231-.926h3.473l.463-1.39z"/></svg>

<?xml version="1.0" encoding="UTF-8" standalone="no"?>
<svg
   xmlns:dc="http://purl.org/dc/elements/1.1/"
   xmlns:cc="http://creativecommons.org/ns#"
   xmlns:rdf="http://www.w3.org/1999/02/22-rdf-syntax-ns#"
   xmlns:svg="http://www.w3.org/2000/svg"
   xmlns="http://www.w3.org/2000/svg"
   xmlns:sodipodi="http://sodipodi.sourceforge.net/DTD/sodipodi-0.dtd"
   xmlns:inkscape="http://www.inkscape.org/namespaces/inkscape"
   width="48"
   height="48"
   viewBox="0 0 12.7 12.7"
   version="1.1"
   id="svg4"
   sodipodi:docname="filezilla.svg"
   inkscape:version="0.92.4 (5da689c313, 2019-01-14)">
  <metadata
     id="metadata10">
    <rdf:RDF>
      <cc:Work
         rdf:about="">
        <dc:format>image/svg+xml</dc:format>
        <dc:type
           rdf:resource="http://purl.org/dc/dcmitype/StillImage" />
        <dc:title></dc:title>
      </cc:Work>
    </rdf:RDF>
  </metadata>
  <defs
     id="defs8" />
  <sodipodi:namedview
     pagecolor="#ffffff"
     bordercolor="#666666"
     borderopacity="1"
     objecttolerance="10"
     gridtolerance="10"
     guidetolerance="10"
     inkscape:pageopacity="0"
     inkscape:pageshadow="2"
     inkscape:window-width="1087"
     inkscape:window-height="480"
     id="namedview6"
     showgrid="false"
     inkscape:zoom="4.9166667"
     inkscape:cx="2.1355932"
     inkscape:cy="24"
     inkscape:window-x="0"
     inkscape:window-y="25"
     inkscape:window-maximized="0"
     inkscape:current-layer="svg4" />
  <path
     d="M 6.35,0.061 A 6.29,6.29 0 0 0 0.061,6.35 6.29,6.29 0 0 0 6.35,12.639 6.29,6.29 0 0 0 12.639,6.35 6.29,6.29 0 0 0 6.35,0.061 Z M 6.332,0.997 A 5.407,5.407 0 0 1 11.739,6.404 5.407,5.407 0 0 1 6.332,11.811 5.407,5.407 0 0 1 0.925,6.404 5.407,5.407 0 0 1 6.332,0.997 Z M 9.128,2.646 H 4.035 l -1.39,6.482 h 1.39 L 4.637,6.35 h 3.41 L 4.962,9.128 5.888,10.054 C 7.277,9.128 8.666,10.795 10.055,9.406 L 9.777,8.295 9.361,8.619 C 8.731,8.981 8.214,8.574 7.481,8.461 L 9.59,6.35 10.053,4.962 H 4.961 L 5.192,4.036 h 3.473 z"
     id="path2"
     inkscape:connector-curvature="0"
     style="fill:#1a1a1a" />
</svg>
